icons/lines/cpu-charge.svg

<svg xmlns="http://www.w3.org/2000/svg" width="24" height="24" viewBox="0 0 24 24" fill="none" stroke="currentColor" stroke-width="2" stroke-linecap="round" stroke-linejoin="round" >
  <path d="M9.6 20H14.4C18.4 20 20 18.4 20 14.4V9.6C20 5.6 18.4 4 14.4 4H9.6C5.6 4 4 5.6 4 9.6V14.4C4 18.4 5.6 20 9.6 20Z"/>
  <path d="M10.5 17H13.5C16 17 17 16 17 13.5V10.5C17 8 16 7 13.5 7H10.5C8 7 7 8 7 10.5V13.5C7 16 8 17 10.5 17Z"/>
  <path d="M8.00977 4V2"/>
  <path d="M12 4V2"/>
  <path d="M16 4V2"/>
  <path d="M20 8H22"/>
  <path d="M20 12H22"/>
  <path d="M20 16H22"/>
  <path d="M16 20V22"/>
  <path d="M12.0098 20V22"/>
  <path d="M8.00977 20V22"/>
  <path d="M2 8H4"/>
  <path d="M2 12H4"/>
  <path d="M2 16H4"/>
  <path d="M11.9997 9.69995L11.0597 11.34C10.8497 11.7 11.0197 12 11.4397 12H12.5597C12.9797 12 13.1497 12.3 12.9397 12.66L11.9997 14.3"/>
  </svg>

<svg xmlns="http://www.w3.org/2000/svg" width="24" height="24" viewBox="0 0 24 24" fill="none" stroke="currentColor" stroke-width="2" stroke-linecap="round" stroke-linejoin="round">
  <path d="M12 4V2" />
  <path d="m12 9.7-.94 1.64c-.21.36-.04.66.38.66h1.12c.42 0 .59.3.38.66L12 14.3" />
  <path d="M12.01 20v2" />
  <path d="M13.5 17c2.5 0 3.5-1 3.5-3.5v-3C17 8 16 7 13.5 7h-3C8 7 7 8 7 10.5v3C7 16 8 17 10.5 17z" />
  <path d="M14.4 20c4 0 5.6-1.6 5.6-5.6V9.6c0-4-1.6-5.6-5.6-5.6H9.6C5.6 4 4 5.6 4 9.6v4.8c0 4 1.6 5.6 5.6 5.6z" />
  <path d="M16 20v2" />
  <path d="M16 4V2" />
  <path d="M2 12h2" />
  <path d="M2 16h2" />
  <path d="M2 8h2" />
  <path d="M20 12h2" />
  <path d="M20 16h2" />
  <path d="M20 8h2" />
  <path d="M8.01 20v2" />
  <path d="M8.01 4V2" />
</svg>
